X:10623
T:Eg heiter Anne Knutsdotter
C:anon., arr. Frank Nordberg
O:Norway
Z:Transcribed by Frank Nordberg - http://www.musicaviva.com
F:http://abc.musicaviva.com/tunes/norway/anne-knutsdotter/anne-knutsdotter-ddad1.abc
V:1 Program 1 25 up %Acoustic guitar
V:2 Program 1 25 merge down %Acoustic guitar
M:2/4
L:1/16
Q:1/4=70
K:D
V:1
A2|[A3/d3/]c/d>f a2a>b|a>ba>f d2f2|e2d2 c2d2|e6A2|
V:2
z2|[D,8D8]|[D,8D8A8]|[E2B2]z2 E4|A8|
%
V:1
[A3/d3/]c/d>f a2a>b|a>ba>f d2d>e|f2f2 e2e2|d4z26
[D,8D8]|[D,8D8]A8|[D4A4]A2c2|[D4A4]D,4|
%
V:1
d>ef>g a3f|a3f b2b2|a3f a3f|a3f e2e2|d6|]
V:2
[D,8D8A8]|[D,8D8A8]|[D,8D8A8]|[D4A4]A2c2|[D2A2]D,4|]
W:
W:
W:  From Musica Viva - http://www.musicaviva.com
W:  the Internet center for free sheet music downloads.
